local/share/icons/dracula-icons-main/symbolic/devices/phonelink-delete-symbolic.svg

<?xml version="1.0" encoding="UTF-8"?>
<svg xmlns="http://www.w3.org/2000/svg" xmlns:xlink="http://www.w3.org/1999/xlink" width="16" height="16" viewBox="0 0 16 16">
<path fill-rule="nonzero" fill="rgb(33.333333%, 33.333333%, 33.333333%)" fill-opacity="1" d="M 5 0 C 3.890625 0 3 0.890625 3 2 L 3 14 C 3 15.109375 3.890625 16 5 16 L 11 16 C 12.109375 16 13 15.109375 13 14 L 13 2 C 13 0.890625 12.109375 0 11 0 Z M 5 1 L 6 1 C 6 1.554688 6.445312 2 7 2 L 9 2 C 9.554688 2 10 1.554688 10 1 L 11 1 C 11.554688 1 12 1.445312 12 2 L 12 14 C 12 14.554688 11.554688 15 11 15 L 5 15 C 4.445312 15 4 14.554688 4 14 L 4 2 C 4 1.445312 4.445312 1 5 1 Z M 5 1 "/>
<path fill-rule="nonzero" fill="rgb(33.333333%, 33.333333%, 33.333333%)" fill-opacity="1" d="M 5.5 5.5 L 6.875 5.5 L 8 6.59375 L 9.09375 5.5 L 10.5 5.5 L 10.5 6.96875 L 9.40625 8.03125 L 10.5 9.09375 L 10.5 10.5 L 9.0625 10.5 L 8 9.4375 L 6.9375 10.5 L 5.5 10.5 L 5.5 9.09375 L 6.5625 8.03125 L 5.5 6.96875 Z M 5.5 5.5 "/>
</svg>

<svg width="16" height="16" version="1.1" viewBox="0 0 16 16">
 <path d="m5 0c-1.108 0-2 0.892-2 2v12c0 1.108 0.892 2 2 2h6c1.108 0 2-0.892 2-2v-12c0-1.108-0.892-2-2-2h-4zm0 1h1c0 0.554 0.446 1 1 1h2c0.554 0 1-0.446 1-1h1c0.554 0 1 0.446 1 1v12c0 0.554-0.446 1-1 1h-6c-0.554 0-1-0.446-1-1v-12c0-0.554 0.446-1 1-1z" fill="#555555"/>
 <g transform="translate(-155.5,-318.5)" fill="#555555">
  <path d="m161 324h1.375l1.125 1.0938 1.0938-1.0938h1.4062v1.4688l-1.0938 1.0625 1.0938 1.0625v1.4062h-1.4375l-1.0625-1.0625-1.0625 1.0625h-1.4375v-1.4062l1.0625-1.0625-1.0625-1.0625z" fill="#555555"/>
 </g>
</svg>
